Numix-GalliumOS/64/mimetypes/application-info.svg

<svg xmlns="http://www.w3.org/2000/svg" xmlns:xlink="http://www.w3.org/1999/xlink" width="64px" height="64px" viewBox="0 0 64 64" version="1.1">
<g id="surface1">
<path style=" stroke:none;fill-rule:nonzero;fill:rgb(29.019608%,50.196078%,83.921569%);fill-opacity:1;" d="M 10.671875 0 C 9.296875 0 8 1.355469 8 2.789062 L 8 61.210938 C 8 62.566406 9.375 64 10.671875 64 L 53.328125 64 C 54.625 64 56 62.566406 56 61.210938 L 56 18 L 38 0 Z M 10.671875 0 "/>
<path style=" stroke:none;fill-rule:nonzero;fill:rgb(0%,0%,0%);fill-opacity:0.196078;" d="M 42 18 L 56 32 L 56 18 Z M 42 18 "/>
<path style=" stroke:none;fill-rule:nonzero;fill:rgb(100%,100%,100%);fill-opacity:0.392157;" d="M 38 0 L 55.984375 18 L 40.757812 18 C 39.410156 18 38 16.574219 38 15.226562 Z M 38 0 "/>
<path style=" stroke:none;fill-rule:nonzero;fill:rgb(100%,100%,100%);fill-opacity:1;" d="M 22.996094 24 C 21.335938 24 20 25.335938 20 26.996094 L 20 44.996094 C 20 46.65625 21.335938 48 22.996094 48 L 41.003906 48 C 42.664062 48 44 46.65625 44 44.996094 L 44 26.996094 C 44 25.335938 42.664062 24 41.003906 24 Z M 30 28 L 34 28 L 34 32 L 30 32 Z M 28 34 L 34 34 L 34 42 L 36 42 L 36 46 L 28 46 L 28 42 L 30 42 L 30 38 L 28 37.996094 Z M 28 34 "/>
</g>
</svg>

<svg xmlns="http://www.w3.org/2000/svg" viewBox="0 0 64 64">
 <g>
  <path d="m 10.672 0 c -1.375 0 -2.672 1.355 -2.672 2.789 l 0 58.42 c 0 1.355 1.375 2.789 2.672 2.789 l 42.656 0 c 1.297 0 2.672 -1.434 2.672 -2.789 l 0 -43.21 l -18 -18 m -27.328 0" style="fill:#4a7fd6;fill-opacity:1;stroke:none;fill-rule:nonzero"/>
  <path d="m 42 18 l 14 14 l 0 -14 m -14 0" style="fill:#000;fill-opacity:0.196;stroke:none;fill-rule:nonzero"/>
  <path d="m 38 0 l 17.984 18 l -15.227 0 c -1.348 0 -2.758 -1.426 -2.758 -2.773 m 0 -15.227" style="fill:#fff;fill-opacity:0.392;stroke:none;fill-rule:nonzero"/>
  <path d="m 22.996 24 c -1.66 0 -2.996 1.336 -2.996 2.996 l 0 18 c 0 1.66 1.336 3 2.996 3 l 18.01 0 c 1.66 0 2.996 -1.344 2.996 -3 l 0 -18 c 0 -1.66 -1.336 -2.996 -2.996 -2.996 m -11 4 l 4 0 l 0 4 l -4 0 m -2 2 l 6 0 l 0 8 l 2 0 l 0 4 l -8 0 l 0 -4 l 2 0 l 0 -4 l -2 -0.004 m 0 -3.996" style="fill:#fff;fill-opacity:1;stroke:none;fill-rule:nonzero"/>
 </g>
</svg>
